src/dark/hiso font dark_p19-hammer reversed.svg

<svg xmlns="http://www.w3.org/2000/svg" width="126" height="126" viewBox="0 0 126 126"><path fill="#000101" d="M81 36l-27 13.5v9l-45-22.5-9 4.5v18l54 27v18l27 13.5 27-13.5v-54l-27-13.5zm-27 31.5l-50.63-25.33 5.63-2.82 45 22.5v5.65zm-51-10.85v-11.3l51 25.5v11.3l-51-25.5zm78 57l-24-12v-47.3l24 12v47.3zm0-50.65l-23.646-11.823 23.646-11.827 23.646 11.827-23.646 11.823z"/></svg>

<svg xmlns="http://www.w3.org/2000/svg" width="126" height="126"><path fill="#000101" d="M81 36L54 49.5v9L9 36l-9 4.5v18l54 27v18L81 117l27-13.5v-54L81 36zM54 67.5L3.37 42.17 9 39.35l45 22.5v5.65zM3 56.65v-11.3l51 25.5v11.3L3 56.65zm78 57l-24-12v-47.3l24 12v47.3zM81 63L57.354 51.177 81 39.35l23.646 11.827L81 63z"/></svg>
